X: 5072
T: Bride's A Bonny Wee Thing, The
R: jig
M: 6/8
K: Amajor
|:A3A3|B^GB Bcd|A3A3|f^df ece|
A3A3|B^GB Bcd|ece dcB|A3A3:|
|:efg agf|g2 B Bcd|e3 aec|efg agf|
efg agf|a2B Bcd|ece dcB|A3A3:|

